icon-themes/breeze_svg/cmd/lc_savebackground.svg

<svg viewBox="0 0 24 24" xmlns="http://www.w3.org/2000/svg"><g fill="#4d4d4d"><path d="m4 3v1 17h1 8v-6l1-1h3l-2-2-4 4-1-1-4.84375 4.84375-.15625.15625v-16h14v10h1v-10-1h-15zm4 2c-1.108 0-2 .892-2 2s.892 2 2 2 2-.892 2-2-.892-2-2-2z"/><path d="m14 15v6h6v-4.5l-1.5-1.5zm1 1h1v1h2v-1l1 1v3h-4z"/></g></svg>

<svg xmlns="http://www.w3.org/2000/svg" viewBox="0 0 24 24">
  <path
     style="fill:#4d4d4d"
     d="m 4,3 v 1 17 h 1 8 v -6 l 1,-1 v 0 h 3 L 15,12 11,16 10,15 5.15625,19.84375 5,20 V 4 h 14 v 10 h 1 V 4 3 H 5 Z M 8,5 C 6.892,5 6,5.892 6,7 6,8.108 6.892,9 8,9 9.108,9 10,8.108 10,7 10,5.892 9.108,5 8,5 Z"
     />
  <path
     style="fill:#4d4d4d"
     d="m 14,15 v 6 h 6 V 16.5 L 18.5,15 Z m 1,1 h 1 v 1 h 2 v -1 l 1,1 v 3 h -4 z"
     />
</svg>
